X: 870
T: Sandy River Belle
B: jims roots
M:4/4
L:1/8
R: reel
Q: 1/4=100
K:Gmaj
V:1 
DG |:"G"B3c BAG2 | e2d2- ded2 | B3c BAG2 | "C"E2D2 "G"B,2D2 |
B3c BAG2 | e2d2 gage | dged "D"BGAF|[1 "G"G4z2DG:| [2 "G"G4 zABd||
|:"G"gage dega | [d2b2][d2b2] aged | gage dega | [d2b2][d2b2] "D"a4 |
"G"gage dega | [d2b2][d2b2] aged | gage dged |[1 "D"(3BcB AF "G"GABd:|
V:2 "D"(3BcB AF "G"G4|
% abcbook-tune_id 6298c287ee32be0a515d086e


% abcbook-boost 0
% abcbook-tablature 
% abcbook-transpose 
% abcbook-lastupdated 1654178440157
% abcbook-soundfonts 
% abcbook-repeats 1


